icon-svg/tim-logo-alt.svg

<svg xmlns="http://www.w3.org/2000/svg" viewBox="0 0 24 24"><path fill="#44739e" d="M7.686 11.502h3.641v-1.9H7.686a.507.507 0 0 0-.5.512v.873a.507.507 0 0 0 .5.515m0-3.47h3.641v-1.9H7.686a.507.507 0 0 0-.5.512v.873a.507.507 0 0 0 .5.515m9.851-1.395a.5.5 0 0 0-.144-.352.48.48 0 0 0-.352-.15h-3.646v1.888h3.641a.507.507 0 0 0 .5-.512ZM7.686 4.554h9.352a.5.5 0 0 0 .5-.509v-.877a.507.507 0 0 0-.5-.512H7.686a.51.51 0 0 0-.5.512v.874a.507.507 0 0 0 .5.512m5.709 5.053v1.895h3.641a.506.506 0 0 0 .5-.512v-.878a.52.52 0 0 0-.144-.355.48.48 0 0 0-.352-.15Zm7.781 2.895H20.6c-.739 0-.784.083-.842.211l-1.142 2.8c-.381.932-.771 1.933-.922 2.452a22 22 0 0 0-.921-2.5L15.63 12.71c-.07-.163-.358-.211-.979-.211h-.646c-.634 0-.762.058-.762.189v8.464c0 .153.128.189.784.189h.358c.647 0 .832-.036.832-.189v-5.014h.045a3 3 0 0 0 .151.448l1.315 3.149c.057.141.128.2.739.2h.39c.624 0 .669-.045.727-.2l1.2-3.031a6 6 0 0 0 .2-.566h.045v5.018c0 .153.128.188.806.188h.346c.633 0 .819-.035.819-.188v-8.461c-.005-.131-.187-.193-.824-.193m-13.08 0H2.208c-.173 0-.208 0-.208.647v.579c0 .627.048.672.208.672h1.954v6.752c0 .154.116.189.784.189h.35c.656 0 .842-.035.842-.189v-6.75h1.958c.163 0 .208-.07.208-.672v-.578c-.008-.624-.039-.65-.208-.65m2.694 0h-.368c-.669 0-.784.058-.784.189v8.461c0 .153.115.188.784.188h.368c.633 0 .819-.035.819-.188v-8.457c0-.131-.186-.193-.819-.193"/></svg>

<?xml version="1.0" encoding="UTF-8"?>
<svg width="24px" fill="#44739e" height="24px" viewBox="0 0 24 24" version="1.1" xmlns="http://www.w3.org/2000/svg" xmlns:xlink="http://www.w3.org/1999/xlink">
            <path d="m 7.69,11.5 h 3.641 V 9.6 H 7.69 a 0.507,0.507 0 0 0 -0.5,0.512 v 0.873 a 0.507,0.507 0 0 0 0.5,0.515 z m 0,-3.47 h 3.641 V 6.13 H 7.69 A 0.507,0.507 0 0 0 7.19,6.642 V 7.515 A 0.507,0.507 0 0 0 7.69,8.03 Z M 17.542,6.635 A 0.509,0.509 0 0 0 17.398,6.283 0.477,0.477 0 0 0 17.046,6.133 H 13.4 v 1.888 h 3.641 a 0.507,0.507 0 0 0 0.5,-0.512 z M 7.69,4.552 h 9.353 a 0.5,0.5 0 0 0 0.5,-0.509 V 3.166 a 0.507,0.507 0 0 0 -0.5,-0.512 H 7.69 A 0.51,0.51 0 0 0 7.19,3.166 V 4.04 a 0.507,0.507 0 0 0 0.5,0.512 z M 13.4,9.605 V 11.5 h 3.641 a 0.506,0.506 0 0 0 0.5,-0.512 V 10.11 A 0.516,0.516 0 0 0 17.397,9.755 0.477,0.477 0 0 0 17.045,9.605 Z m 7.781,2.895 h -0.576 c -0.739,0 -0.784,0.083 -0.842,0.211 l -1.142,2.8 c -0.381,0.932 -0.771,1.933 -0.922,2.452 a 21.689,21.689 0 0 0 -0.921,-2.5 l -1.143,-2.755 c -0.07,-0.163 -0.358,-0.211 -0.979,-0.211 H 14.01 c -0.634,0 -0.762,0.058 -0.762,0.189 v 8.464 c 0,0.153 0.128,0.189 0.784,0.189 h 0.358 c 0.647,0 0.832,-0.036 0.832,-0.189 v -5.014 h 0.045 a 3.1,3.1 0 0 0 0.151,0.448 l 1.315,3.149 c 0.057,0.141 0.128,0.2 0.739,0.2 h 0.39 c 0.624,0 0.669,-0.045 0.727,-0.2 l 1.2,-3.031 a 5.949,5.949 0 0 0 0.2,-0.566 h 0.045 v 5.018 c 0,0.153 0.128,0.188 0.806,0.188 h 0.346 c 0.633,0 0.819,-0.035 0.819,-0.188 V 12.693 C 22,12.562 21.818,12.5 21.181,12.5 Z M 8.1,12.5 H 2.212 c -0.173,0 -0.208,0 -0.208,0.647 v 0.579 c 0,0.627 0.048,0.672 0.208,0.672 h 1.954 v 6.752 c 0,0.154 0.116,0.189 0.784,0.189 H 5.3 c 0.656,0 0.842,-0.035 0.842,-0.189 V 14.4 H 8.1 c 0.163,0 0.208,-0.07 0.208,-0.672 V 13.15 C 8.3,12.526 8.269,12.5 8.1,12.5 Z m 2.694,0 h -0.368 c -0.669,0 -0.784,0.058 -0.784,0.189 v 8.461 c 0,0.153 0.115,0.188 0.784,0.188 h 0.368 c 0.633,0 0.819,-0.035 0.819,-0.188 v -8.457 c 0,-0.131 -0.186,-0.193 -0.819,-0.193 z"/>

</svg>
